X:1
T:Heliotrope Bouquet.
T:HELIOTROPE   BOUQUET
T:  By SCOTT  JOPLIN and  LOUIS  CHAUVIN.
T:A  Slow  Drag  Two  Step.
T:N.B. Do not play this piece fast. It is never right to play “Ragtime”fast.Composers.
T:Public Domain
T:Public Domain
T:Public Domain
T:Public Domain
C:Scott Joplin and Louis Chauvin
Z:Public Domain
%%score { ( 1 3 ) | ( 2 4 ) }
L:1/8
Q:1/4=69
M:2/4
K:G
V:1 treble nm="Piano."
V:3 treble 
V:2 bass 
V:4 bass 
V:1
"^Slow March Tempo."!mf! D/E/F/G/- G/B/A/G/ | d/c/B/A/- A/B/c/d/ | c/EF/ GE | D z (!>!fe) || %4
!mf! ([=C=c]/[Dd]/[Ee]/[CB]/-) B/F/A | (G/B/d/f/-) f/^c/e | ([=C=c]/[Dd]/[Ee]/[CB]/-) B/F/A | %7
 (G/B/d/f/-) f/^c/e | ([=C=c]/[Dd]/[Ee]/[CB]/-) B/F/A |!<(! (G/A/B/d/-) d/d/e!<)! | %10
!<(! ([Ff]/[Gg]/[Aa]/f/-) f/d/e!<)! |!f! [FAd]2!>(! (!>!fe)!>)! | %12
!mf! ([=C=c]/[Dd]/[Ee]/[CB]/-) B/F/A | (G/B/d/f/-) f/^c/e | ([=C=c]/[Dd]/[Ee]/[CB]/-) B/F/A | %15
 G(d/B/) (d/B/d/B/) | dd/B/ d/gB/ | cc/B/ (c/G/A/^A/) | B/dB/- B/G/A | [B,G]2 !>![d^eb]2 |: %20
!f! bb/a/ b/d'a/ | b/a/b/d'/- d'-d'/(3(d/4^d/4e/4) | ge/d/ e/gd/ | %23
 [GBg]/[FBf]/[GBg]/[GBe]/- [GBe]/[Dd]/[Ee]/[^E^e]/ | [Fcf][Fcf]/d/ [Fcf]/[Aca]e/ | %25
 [Fcf]/e/[Fcf]/[Fce]/- [Fce]-[Fce]/(3(d/4e/4f/4) |"^R.H." !^![Bg]([Bd][^A^c][=A=c]) | %27
 ([GB][G_B][^FA])!^![D^E=B] |!f! z/ a/b/a/ b/d'a/ | (b/a/b/d'/-) d'-d'/(3(d/4^d/4e/4) | %30
 ge/d/ e/gd/ | [GBg]/[FBf]/[GBg]/[GBe]/- [GBe](3(d/^c/d/) | e[d^gb] (a<e') | [=cd][dfa] (g<d') | %34
 (a<e') (a<d') |1 [Bdg]2 !>![d^eb]2 :|2 [Bdg]2 (!>!fe) ||!mf! ([=C=c]/[Dd]/[Ee]/[CB]/-) B/F/A | %38
 (G/B/d/f/-) f/^c/e | ([=C=c]/[Dd]/[Ee]/[CB]/-) B/F/A | (G/B/d/f/-) f/^c/e | %41
 ([=C=c]/[Dd]/[Ee]/[CB]/-) B/F/A |!<(! (G/A/B/d/-) d/d/e!<)! |!<(! ([Ff]/[Gg]/[Aa]/f/-) f/d/e!<)! | %44
!f! [FAd]2!>(! (!>!fe)!>)! |!mf! ([=C=c]/[Dd]/[Ee]/[CB]/-) B/F/A | (G/B/d/f/-) f/^c/e | %47
 ([=C=c]/[Dd]/[Ee]/[CB]/-) B/F/A | G(d/B/) (d/B/d/B/) | dd/B/ d/gB/ | cc/B/ (c/G/A/^A/) | %51
 B/dB/- B/G/A | [B,G](G/A/ B/c/d/^d/) |:[K:C]!mp! (e/^d/e/G/) A/c=d/ | %54
 [Gce][Acea]/[Gceg]/- ([Gceg]/[ee']/[dd']/f/) | (e/^d/e/G/) A/c=d/ | [Gce]4 | %57
 (f/c'/d/c/-) c/(d/f/c'/) | (e/g/d/c/-)!<(! c/([Gg]/[Aa]/[^A^a]/)!<)! | %59
!<(! [Bb]/[cc']/[dd']/[^cgb]/-!<)! [cg][=c^f] | [Bdg]!>(!(G/A/ B/c/d/^d/)!>)! | %61
!mp! (e/^d/e/G/) A/c=d/ | [Gce][Acea]/[Gceg]/- [Gceg]/c/e | %63
"_cresc." ^d/e/^g/[=dgc']/- [dgc']/e/[dgb] | [cea][Bb]/[cc']/- [cc']/(a/e/c/) | %65
!mf! (c'/a/^f/^d/ c/A_A/) | GA/c/- c/d/e | [^FA]2 [=FGe]2 |1 [EGc](G/A/ B/c/d/^d/) :|2 %69
 [EGc]2- [EGc] z |:!mf! (G/B/d/g/-) (g/a/g/f/) | eg/c'/-!>(! c'>^A!>)! |!mp! B/g^A/ B/gB/ | %73
!<(! (c/d/^d/e/-) e2!<)! |!mf! (G/B/d/g/-) g/(a/g/f/) | eg/c'/- (c'/a/e/c/) | %76
!<(! (B/e/g/^f/-) fb!<)! |!f! [Beb](g/B/)!>(! (e/^c/^A/G/-)!>)! | (G/B/d/g/-) (g/a/g/f/) | %79
 eg/c'/- c'>^A | B/g^A/ B/gB/ |!>(! (c/B/A/G/-) G>^G!>)! |!mp! (A/a/f/c/) (G/[ceg])^G/ | %83
 (A/a/f/c/) (G/[ceg])G/ |!mf! [^FA]2 [=FGe]2 |1 [EGc]2- [EGc] z :|2 %86
 [EGc]2 !^![cegc'] !fermata!z!fine! |] %87
V:2
 D,/E,/F,/G,/- G,/B,/A,/G,/ | D/C/B,/A,/- A,/B,/C/D/ | C/E,F,/ G,E, | D, z !>![_B,,_B,]2 || %4
 [A,,E,]>D,- D,[D,,D,] | [G,,D,][B,,B,]/[_B,,_B,]/- [B,,B,]2 | [A,,E,]>D,- D,[D,,D,] | %7
 [G,,D,][B,,B,]/[_B,,_B,]/- [B,,B,]2 | [A,,E,]>[D,,D,]- [D,,D,][^D,,^D,] | %9
 [E,,E,]>[B,,B,]- [B,,B,][_B,,_B,] | [A,,A,]>[B,,,B,,]- [B,,,B,,][A,,,A,,] | %11
{/D,} D,,2 !>![_B,,_B,]2 | [A,,E,]>D,- D,[D,,D,] | [G,,D,][B,,B,]/[_B,,_B,]/- [B,,B,]2 | %14
 [A,,E,]>D,- D,[D,,D,] | [G,,D,]2 [G,,G,]2 | [G,,=F,][G,,F,] [G,,F,][G,,F,] | %17
 [G,,E,][G,,E,] [G,,_E,][G,,E,] | [D,,D,][^D,,^D,]/[E,,E,]/- [E,,E,][=D,,=D,] | %19
 [G,,G,]2 !>![^G,,^G,]2 |: [A,,A,][D,F,C] [D,,D,][D,F,C] | A,[F,C]- [F,C]-[F,C]/ z/ | %22
 [G,,G,][D,G,B,] [D,,D,][D,G,B,] | [G,,G,][D,G,B,] [D,,D,][G,,G,]/[^G,,^G,]/ | %24
 [A,,A,][D,A,C] [D,,D,][D,F,C] | [A,,A,][D,A,C] [D,,D,]-[D,,D,]/(3(D,/4E,/4F,/4) | %26
 !^!G,"^L.H."[I:staff -1] (=FE_E) | (D^C=C)[I:staff +1] !^![^G,,^G,] | %28
 [A,,A,][D,F,C] [D,,D,][D,F,C] | A,[F,C]- [F,C]-[F,C]/ z/ | [G,,G,][D,G,B,] [D,,D,][D,G,B,] | %31
 [G,,G,][D,G,B,] [G,,G,][=F,,=F,] | [E,,E,][E,^G,D] [A,,A,][E,=G,A,^C] | %33
 [D,F,A,D][=C,=C] [B,,B,][D,G,B,] | [A,,A,][E,G,A,^C] [D,,D,][D,F,A,=C] |1 %35
 [G,,G,]2 !>![^G,,^G,]2 :|2 [G,,G,]2 !>![_B,,_B,]2 || [A,,E,]>D,- D,[D,,D,] | %38
 [G,,D,][B,,B,]/[_B,,_B,]/- [B,,B,]2 | [A,,E,]>D,- D,[D,,D,] | %40
 [G,,D,][B,,B,]/[_B,,_B,]/- [B,,B,]2 | [A,,E,]>[D,,D,]- [D,,D,][^D,,^D,] | %42
 [E,,E,]>[B,,B,]- [B,,B,][_B,,_B,] | [A,,A,]>[B,,,B,,]- [B,,,B,,][A,,,A,,] | %44
{/D,} D,,2 !>![_B,,_B,]2 | [A,,E,]>D,- D,[D,,D,] | [G,,D,][B,,B,]/[_B,,_B,]/- [B,,B,]2 | %47
 [A,,E,]>D,- D,[D,,D,] | [G,,D,]2 [G,,G,]2 | [G,,=F,][G,,F,] [G,,F,][G,,F,] | %50
 [G,,E,][G,,E,] [G,,_E,][G,,E,] | [D,,D,][^D,,^D,]/[E,,E,]/- [E,,E,][=D,,=D,] | %52
 [G,,G,] z [G,B,=F]2 |:[K:C]"^legato" [C,,C,][G,CE] [F,,F,][_A,CF] | %54
 [C,,C,][G,CE] [G,,,G,,][G,B,F] | [C,,C,][G,CE] [F,,F,][^F,,^F,] | %56
 [G,,G,]!>![C,C]!>![B,,B,]!>![_B,,_B,] | A,[A,CF] _A,[A,CF] | [G,,G,][G,CE] [E,,E,][_E,,_E,] | %59
 [D,,D,]>[E,,E,]- [E,,E,][D,,D,] | [G,,G,][F,,F,][E,,E,][D,,D,] | [C,,C,][G,CE] [F,,F,][_A,CF] | %62
 [C,,C,][G,CE] [G,,,G,,][G,CE] | [E,,,E,,][^G,DE] [E,,,E,,][G,DE] | %64
 [A,,,A,,][A,CE] [E,,,E,,][A,CE] | (^F,,/A,,/C,/^D,/ ^F,/A,_A,/) | [G,,G,][G,CE] [A,,,A,,][A,CE] | %67
 [D,,D,][^F,A,C] [G,,G,][=F,G,B,] |1 [C,E,G,C] z [G,B,F]2 :|2 %69
 [C,E,G,C]!^![^D,,^D,]/!^![E,,E,]/ !^![G,,G,]/!^![C,C]/!^![B,,B,]/!^![A,,A,]/ |: %70
 [G,,G,]"^legato"[F,,F,][E,,E,][D,,D,] | [C,,C,][G,CE] [E,,E,][G,CE] | %72
 [G,,,G,,][G,B,DF] [D,,D,][^D,,^D,] | [E,,E,][G,CE] !^![G,,G,]/!^![C,C]/!^![B,,B,]/!^![A,,A,]/ | %74
 [G,,G,][F,,F,][E,,E,][D,,D,] | [C,,C,][G,CE] [A,,,A,,][A,CE] | %76
 [B,,,B,,][G,B,E] [B,,,B,,][A,B,^D] | [E,,E,][G,B,E] [^C,,^C,][E,G,^A,] | %78
 [D,,D,][F,,F,][E,,E,][D,,D,] | [C,,C,][G,CE] [E,,E,][G,CE] | [G,,,G,,][G,B,DF] [D,,D,][^D,,^D,] | %81
 [E,,E,][G,CE] C,[G,CE] | C4 | C4 | [D,,D,][^F,A,C] [G,,G,][=F,G,B,] |1 %85
 [C,E,G,C]!^![^D,,^D,]/!^![E,,E,]/ !^![G,,G,]/!^![C,C]/!^![B,,B,]/!^![A,,A,]/ :|2 %86
 [C,E,G,C]{/^F,,}G,, !^![C,,C,] z |] %87
V:3
 x4 | x4 | x4 | x x [G^c]2 || E>F- [CF][CF] | B,>[G^c]- [Gc]2 | E>F- [CF][CF] | B,>[G^c]- [Gc]2 | %8
 E>F- [CF][CF] | [B,E]>[DFB]- [DFB][Gd] | [Fd]>[^Gd]- [Gd][=G^c] | x2 [G^c]2 | E>F- [CF][CF] | %13
 B,>[G^c]- [Gc]2 | E>F- [CF][CF] | B,2 G2 | GG G2 | GG G2 | [DG]>[^CG]- [CG][=CF] | x4 |: %20
 [cf][cf]- [cf]<[df] | [cf]>[df]- [df]-[df]/ z/ | B[GB]- [GB]<[GB] | x4 | x4 | x4 | x4 | x4 | %28
 z [cf]- [cf]<[df] | [cf]>[df]- [df]-[df]/ z/ | B[GB]- [GB]<[GB] | x4 | x2 [^c=g]2 | x2 d2 | %34
 [^cg]2 [=cf]2 |1 x4 :|2 x2 [G^c]2 || E>F- [CF][CF] | B,>[G^c]- [Gc]2 | E>F- [CF][CF] | %40
 B,>[G^c]- [Gc]2 | E>F- [CF][CF] | [B,E]>[DFB]- [DFB][Gd] | [Fd]>[^Gd]- [Gd][=G^c] | x2 [G^c]2 | %45
 E>F- [CF][CF] | B,>[G^c]- [Gc]2 | E>F- [CF][CF] | B,2 G2 | GG G2 | GG G2 | [DG]>[^CG]- [CG][=CF] | %52
 x4 |:[K:C] G2 A>_A | x4 | G2 A>_A | x4 | x4 | x2 x/ c3/2 | g3/2 x/ b/g/a | x4 | G2 A>_A | x4 | %63
 x4 | x4 | x4 | x4 | x4 |1 x4 :|2 x4 |: G>B- B2 | c>[ce]- [ce] z | x4 | x4 | G>B- B2 | %75
 c>[ce]- [ce] z | B>[B^d]- [Bd][Bd] | x4 | G>B- B2 | c>[ce]- [ce] z | x4 | x4 | x4 | x4 | x4 |1 %85
 x4 :|2 x4 |] %87
V:4
 x4 | x4 | x4 | x4 || x4 | x4 | x4 | x4 | x4 | x4 | x4 | x4 | x4 | x4 | x4 | x4 | x4 | x4 | x4 | %19
 x4 |: x4 | [A,,A,]2 [D,,D,]-[D,,D,]/(3(D,/4^D,/4E,/4) | x4 | x4 | x4 | x4 | x4 | x4 | x4 | %29
 [A,,A,]2 [D,,D,]-[D,,D,]/(3(D,/4^D,/4E,/4) | x4 | x4 | x4 | x4 | x4 |1 x4 :|2 x4 || x4 | x4 | x4 | %40
 x4 | x4 | x4 | x4 | x4 | x4 | x4 | x4 | x4 | x4 | x4 | x4 | x4 |:[K:C] x4 | x4 | x4 | x4 | %57
 [A,,A,]2 [_A,,_A,]2 | x4 | x4 | x4 | x4 | x4 | x4 | x4 | x4 | x4 | x4 |1 x4 :|2 x4 |: x4 | x4 | %72
 x4 | x4 | x4 | x4 | x4 | x4 | x4 | x4 | x4 | x4 | (F,^D,E,C,) | (F,^D,E,)[E,,E,] | x4 |1 x4 :|2 %86
 x4 |] %87

